X:1
T:Title
%%score { ( 1 3 4 ) | 2 }
L:1/8
M:6/8
K:Eb
V:1 treble nm="Grand Piano"
V:3 treble 
V:4 treble 
V:2 bass 
V:1
 z3 z2[Q:1/4=84] [Ec] | [Ec][CA][CA] BAF | [CE]3 [CA]2 [Ec] | cBB EBB | [CA]3- [CA]2 [Ec] | %5
 [Ec][CA][CA] BAF | [CE]3 [CA]2 [Ec] | cBB [DB][Ec][Fd] | [Ge]6 | [Ec]3 A3 | [F_d]3 B3 | %11
 _ddB GA[FB] | [=Ec]6 | [Ac]3[K:bass][K:treble] [Ae]3 | [FB]3[K:bass][K:treble] [F_d]3 | _ddB GAB | %16
[M:5/8] [CA]-[CA]- [CA]3 |] %17
V:2
 z3 z2 [A,,A,] | [A,,A,][A,,E,][A,,E,] [_D,F,_D][D,F,D][D,A,D] | [A,,A,]3 [A,,E,]2 [A,,A,] | %3
 [E,A,E][E,G,E][E,G,E] [E,G,_D][E,G,D][E,D] | [A,,E,]3- [A,,E,]2 [A,,A,] | %5
 [A,,A,][A,,E,][A,,E,] [_D,F,_D][D,F,D][D,A,D] | [A,,A,]3 [A,,E,]2 [A,,A,] | %7
 [E,A,E][E,G,E][E,G,E] [B,,B,][B,,B,][B,,B,] | [E,B,]6 | [A,,A,]A,,A,, .[A,,E,]2 A,, | %10
 [_D,A,]D,D, .[D,F,_D]2 D, | [E,G,E][E,G,E][E,G,E] [E,B,E][E,A,E][_D,G,] | [C,G,]6 | %13
 [A,,E,]A,,A,, .[C,E,]2 C, | [_D,F,]D,D, .[B,,F,]2 B,, | %15
 [E,G,E][E,G,E][E,G,E] [E,B,_D][E,A,D][E,G,D] |[M:5/8] [A,,A,]-[A,,A,]- [A,,A,]3 |] %17
V:3
 x6 | x6 | x6 | x6 | x6 | x6 | x6 | x6 | x6 | z3 z C2 | z3 z _D2 | x6 | x6 | %13
 z[K:bass] E,E,[K:treble] z A,_G, | z[K:bass] F,F,[K:treble] z B,A, | x6 |[M:5/8] x5 |] %17
V:4
 x6 | x6 | x6 | x6 | x6 | x6 | x6 | x6 | x6 | z A,A, .C2 A, | z A,A, z2 B, | x6 | x6 | %13
 x[K:bass] x2[K:treble] x3 | x[K:bass] x2[K:treble] x3 | x6 |[M:5/8] x5 |] %17

